X: 5
T: The Ace And Deuce Of Pipering
R: hornpipe
M: 4/4
L: 1/8
K: Dmaj
AG|:F2 GE FAGE|FAGE F2 ED|A2 BG A2 BG|AcBG AGFE|
B2 cA BAGF|EAA^G A=GFE|FDGE F2 ED|EDEF GFGE|
D2 dB cAGE|EDEF GEED|DEDE DEDE|1 D4 D2 AG:|2 D4 D2 DE||
|:D2=c2B2c2|D2 =cd cAGE|D2 d2 ^c2 d2|A2 de dcAG|
E2 =c2 B2 c2|A^GAB ^cBcd|ed (3cde dcAG|FDGE F2 EF|
D2 dB cAGE|EDEF GEED|DEDE DEDE|1 D4 D2DE:|2 D4 D2 AG||

